!!!COM: Beethoven
!!!OTL: 32 Variationen fur das pianoforte
!!!Variation: Variation 6 a
**function	**harm	**kern	**kern
*	*	*clefF4	*clefG2
*	*	*k[b-e-a-]	*k[b-e-a-]
*M3/4	*M3/4	*M3/4	*M3/4
*c:	*c:	*c:	*c:
=49	=49	=49	=49
2.T	2.i	12CCL 12EE- 12GG 12C	12ee-L 12gg 12ccc 12eee-
.	.	12CC 12EE- 12GG 12C	12ee- 12gg 12ccc 12eee-
.	.	12CCJ 12EE- 12GG 12C	12ee-J 12gg 12ccc 12eee-
.	.	12CCL 12EE- 12GG 12C	12ee-L 12gg 12ccc 12eee-
.	.	12G'	12c'
.	.	12E-'J	12e-'J
.	.	12C'L	12g'L
.	.	12E-'	12e-'
.	.	12C'J	12g'J
=50	=50	=50	=50
2.T	2.Vb	12BBL	12dL
.	.	12B	12g
.	.	12GnJ	12dJ
.	.	12DL	12bL
.	.	12G	12g
.	.	12DJ	12bJ
.	.	12BL	12gL
.	.	12G	12dd
.	.	12BJ	12gJ
=51	=51	=51	=51
2.T	2.viioc/IV	12B-L	12eL
.	.	12G	12g
.	.	12B-J	12eJ
.	.	12GL	12dd-L
.	.	12E	12g
.	.	12GJ	12dd-J
.	.	12EL	12gL
.	.	12BB-	12ee
.	.	12EJ	12gJ
=52	=52	=52	=52
2.P	2.IVb	12AL	12fL
.	.	12F	12a
.	.	12AJ	12fJ
.	.	12FL	12ccL
.	.	12C	12a
.	.	12FJ	12ccJ
.	.	12CL	12aL
.	.	12AA	12ff
.	.	12CJ	12aJ
=53	=53	=53	=53
2.P	2.Gn	12A-L	12f#L
.	.	12E-	12cc
.	.	12A-J	12f#J
.	.	12CL	12ee-L
.	.	12E-	12f#
.	.	12CJ	12ee-J
.	.	12E-L	12ccL
.	.	12C	12ff#
.	.	12AA-J	12ccJ
=54	=54	=54	=54
4D	4V	12GGL	12ggL
.	.	12G	12b
.	.	12FJ	12aa-J
2D	2viioD7d	12A-L	12ddL
.	.	12D	12bb
.	.	12FJ	12ffJ
.	.	12BBL	12dddL
.	.	12D	12aa-
.	.	12AA-J	12fffJ
=55	=55	=55	=55
2D	2V7	12GGL	12bbL
.	.	12F	12aaa-
.	.	12GJ	12gggJ
.	.	12A-L	12fffL
.	.	12B	12ddd
.	.	12cJ	12eee-J
6D	6iv	12FL	12aa-L
.	.	12A-	12ff
12D	12V	12GJ	12ggJ
=56	=56	=56	=56
2.T	2.i	12CL	8cc
.	.	12E-	.
.	.	.	8r
.	.	12BBJ	.
.	.	12CL	4r
.	.	12EE-	.
.	.	12GGJ	.
.	.	8CC	4r
.	.	8r	.
*-	*-	*-	*-
